;FLAVOR:RepRap
;TIME:1006
;Filament used: 13.3058m
;Layer height: 1.2
;MINX:-25.995
;MINY:-10.995
;MINZ:0.9
;MAXX:55.994
;MAXY:70.995
;MAXZ:36
;Generated with Cura_SteamEngine 5.2.1
T0
M109 S0
M82 ;absolute extrusion mode
M302 ; Cold Extrusion
G1 Z15 F6000
G92 E0
G92 E0
;LAYER_COUNT:29
;LAYER:0
M107
G1 F1200 Z2.4
G0 F3000 X32.101 Y67.254 Z2.4
;TYPE:SKIRT
G1 F1200 Z0.9
G1 F2400 X30.965 Y67.755 E0.62438
G1 X29.944 Y68.172 E1.179
G1 X28.835 Y68.588 E1.77466
G1 X27.871 Y68.921 E2.28756
G1 X26.654 Y69.303 E2.92902
G1 X25.671 Y69.58 E3.44262
G1 X24.33 Y69.916 E4.13784
G1 X23.253 Y70.154 E4.69253
G1 X22.277 Y70.343 E5.19247
G1 X21.331 Y70.501 E5.67479
G1 X19.852 Y70.705 E6.42562
G1 X18.876 Y70.81 E6.91927
G1 X17.997 Y70.884 E7.36288
G1 X16.568 Y70.963 E8.08261
G1 X15.541 Y70.992 E8.59929
G1 X14.807 Y70.995 E8.96841
G1 X13.841 Y70.978 E9.45428
G1 X12.647 Y70.926 E10.05531
G1 X11.726 Y70.863 E10.51956
G1 X10.306 Y70.724 E11.23708
G1 X9.496 Y70.623 E11.64757
G1 X8.246 Y70.433 E12.28341
G1 X7.028 Y70.212 E12.90594
G1 X6.118 Y70.022 E13.37344
G1 X4.888 Y69.729 E14.0093
G1 X4.011 Y69.495 E14.46577
G1 X2.881 Y69.162 E15.0582
G1 X1.657 Y68.761 E15.70594
G1 X0.695 Y68.416 E16.21989
G1 X-.587 Y67.915 E16.91208
G1 X-1.506 Y67.524 E17.41433
G1 X-2.563 Y67.04 E17.99896
G1 X-3.644 Y66.508 E18.60486
G1 X-4.599 Y66.005 E19.14766
G1 X-5.689 Y65.389 E19.7773
G1 X-6.708 Y64.772 E20.37636
G1 X-7.742 Y64.106 E20.99488
G1 X-8.612 Y63.51 E21.52522
G1 X-9.635 Y62.765 E22.16164
G1 X-10.598 Y62.018 E22.77455
G1 X-11.374 Y61.382 E23.27912
G1 X-12.422 Y60.469 E23.9781
G1 X-13.257 Y59.697 E24.54999
G1 X-14.206 Y58.765 E25.2189
G1 X-14.978 Y57.959 E25.78016
G1 X-15.705 Y57.159 E26.32378
G1 X-16.582 Y56.134 E27.00218
G1 X-17.278 Y55.271 E27.55973
G1 X-18.008 Y54.308 E28.16743
G1 X-18.666 Y53.388 E28.73625
G1 X-19.356 Y52.362 E29.35804
G1 X-19.939 Y51.439 E29.90705
G1 X-20.626 Y50.277 E30.58591
G1 X-21.188 Y49.259 E31.17068
G1 X-21.634 Y48.394 E31.66011
G1 X-22.253 Y47.105 E32.37921
G1 X-22.706 Y46.084 E32.94093
G1 X-23.172 Y44.945 E33.55981
G1 X-23.588 Y43.835 E34.15594
G1 X-23.963 Y42.743 E34.73657
G1 X-24.264 Y41.781 E35.24348
G1 X-24.579 Y40.671 E35.82374
G1 X-24.919 Y39.323 E36.52287
G1 X-25.135 Y38.345 E37.02655
G1 X-25.343 Y37.276 E37.57423
G1 X-25.501 Y36.33 E38.05655
G1 X-25.688 Y34.989 E38.73746
G1 X-25.81 Y33.875 E39.30103
G1 X-25.884 Y32.996 E39.74464
G1 X-25.963 Y31.566 E40.46487
G1 X-25.992 Y30.528 E40.98708
G1 X-25.995 Y29.807 E41.34967
G1 X-25.978 Y28.842 E41.83503
G1 X-25.926 Y27.647 E42.43656
G1 X-25.863 Y26.726 E42.90081
G1 X-25.724 Y25.305 E43.61883
G1 X-25.623 Y24.496 E44.02883
G1 X-25.412 Y23.12 E44.7289
G1 X-25.211 Y22.023 E45.28976
G1 X-25.02 Y21.113 E45.75736
G1 X-24.729 Y19.887 E46.39104
G1 X-24.495 Y19.01 E46.8475
G1 X-24.123 Y17.757 E47.50481
G1 X-23.803 Y16.779 E48.0223
G1 X-23.37 Y15.573 E48.6667
G1 X-22.963 Y14.532 E49.2288
G1 X-22.514 Y13.473 E49.80725
G1 X-22.039 Y12.434 E50.38177
G1 X-21.507 Y11.354 E50.98722
G1 X-20.997 Y10.387 E51.537
G1 X-20.39 Y9.312 E52.15784
G1 X-19.773 Y8.292 E52.75734
G1 X-19.105 Y7.255 E53.37767
G1 X-18.508 Y6.385 E53.90829
G1 X-17.766 Y5.366 E54.5422
G1 X-17.1 Y4.505 E55.08961
G1 X-16.381 Y3.626 E55.6607
G1 X-15.469 Y2.577 E56.35973
G1 X-14.698 Y1.743 E56.9309
G1 X-13.859 Y0.887 E57.53368
G1 X-12.96 Y0.023 E58.16072
G1 X-12.16 Y-.704 E58.70434
G1 X-11.134 Y-1.581 E59.38312
G1 X-10.272 Y-2.276 E59.93996
G1 X-9.309 Y-3.006 E60.54766
G1 X-8.39 Y-3.664 E61.11607
G1 X-7.36 Y-4.357 E61.74038
G1 X-6.321 Y-5.011 E62.35778
G1 X-5.278 Y-5.625 E62.96644
G1 X-4.259 Y-6.188 E63.5519
G1 X-3.394 Y-6.634 E64.04132
G1 X-2.101 Y-7.254 E64.76245
G1 X-.965 Y-7.755 E65.38683
G1 X0.061 Y-8.174 E65.94416
G1 X1.165 Y-8.588 E66.53711
G1 X2.129 Y-8.921 E67.05001
G1 X3.346 Y-9.303 E67.69147
G1 X4.329 Y-9.58 E68.20507
G1 X5.67 Y-9.916 E68.90029
G1 X6.747 Y-10.154 E69.45498
G1 X7.723 Y-10.343 E69.95492
G1 X8.669 Y-10.501 E70.43724
G1 X10.148 Y-10.705 E71.18807
G1 X11.124 Y-10.81 E71.68172
G1 X12.003 Y-10.884 E72.12533
G1 X13.433 Y-10.963 E72.84556
G1 X14.472 Y-10.992 E73.36827
G1 X15.193 Y-10.995 E73.73086
G1 X16.159 Y-10.978 E74.21673
G1 X17.353 Y-10.926 E74.81775
G1 X18.274 Y-10.863 E75.282
G1 X19.694 Y-10.724 E75.99952
G1 X20.504 Y-10.623 E76.41002
G1 X21.754 Y-10.433 E77.04586
G1 X22.972 Y-10.212 E77.66838
G1 X23.882 Y-10.022 E78.13588
G1 X25.112 Y-9.729 E78.77175
G1 X25.989 Y-9.495 E79.22822
G1 X27.119 Y-9.162 E79.82065
G1 X28.343 Y-8.761 E80.46838
G1 X29.305 Y-8.416 E80.98233
G1 X30.587 Y-7.915 E81.67453
G1 X31.506 Y-7.524 E82.17678
G1 X32.563 Y-7.04 E82.76141
G1 X33.644 Y-6.508 E83.3673
G1 X34.599 Y-6.005 E83.91011
G1 X35.689 Y-5.389 E84.53974
G1 X36.708 Y-4.772 E85.13881
G1 X37.741 Y-4.107 E85.75664
G1 X38.61 Y-3.512 E86.28627
G1 X39.528 Y-2.846 E86.85662
G1 X40.494 Y-2.101 E87.47011
G1 X41.375 Y-1.381 E88.04229
G1 X42.422 Y-.469 E88.74057
G1 X43.257 Y0.303 E89.31245
G1 X44.206 Y1.235 E89.98136
G1 X44.891 Y1.948 E90.47859
G1 X45.795 Y2.943 E91.15465
G1 X46.496 Y3.762 E91.69678
G1 X47.276 Y4.727 E92.32078
G1 X48.008 Y5.693 E92.9303
G1 X48.739 Y6.718 E93.56342
G1 X49.283 Y7.526 E94.05327
G1 X49.939 Y8.561 E94.66951
G1 X50.627 Y9.724 E95.34905
G1 X51.123 Y10.62 E95.86407
G1 X51.691 Y11.72 E96.48665
G1 X52.194 Y12.766 E97.07034
G1 X52.706 Y13.918 E97.70431
G1 X53.172 Y15.055 E98.32226
G1 X53.588 Y16.164 E98.91792
G1 X53.964 Y17.258 E99.49967
G1 X54.301 Y18.342 E100.07054
G1 X54.579 Y19.326 E100.58476
G1 X54.888 Y20.546 E101.21766
G1 X55.126 Y21.611 E101.76645
G1 X55.343 Y22.723 E102.33622
G1 X55.501 Y23.669 E102.81855
G1 X55.705 Y25.148 E103.56937
G1 X55.81 Y26.124 E104.06302
G1 X55.893 Y27.132 E104.57166
G1 X55.958 Y28.294 E105.15693
G1 X55.992 Y29.517 E105.77221
G1 X55.994 Y30.53 E106.28164
G1 X55.918 Y32.477 E107.26152
G1 X55.852 Y33.401 E107.72737
G1 X55.724 Y34.695 E108.38129
G1 X55.623 Y35.504 E108.79129
G1 X55.413 Y36.874 E109.4883
G1 X55.211 Y37.977 E110.05222
G1 X54.994 Y39.004 E110.5801
G1 X54.761 Y39.986 E111.08765
G1 X54.463 Y41.101 E111.66805
G1 X54.123 Y42.243 E112.26727
G1 X53.803 Y43.221 E112.78476
G1 X53.37 Y44.427 E113.42915
G1 X52.918 Y45.579 E114.05148
G1 X52.572 Y46.395 E114.49721
G1 X52.039 Y47.566 E115.14423
G1 X51.508 Y48.644 E115.74855
G1 X51.005 Y49.599 E116.29136
G1 X50.39 Y50.688 E116.92031
G1 X49.773 Y51.708 E117.5198
G1 X49.105 Y52.745 E118.14013
G1 X48.508 Y53.615 E118.67075
G1 X47.766 Y54.634 E119.30466
G1 X47.1 Y55.495 E119.85207
G1 X46.381 Y56.374 E120.42316
G1 X45.469 Y57.423 E121.12219
G1 X44.698 Y58.257 E121.69337
G1 X43.859 Y59.113 E122.29614
G1 X42.96 Y59.977 E122.92318
G1 X42.16 Y60.704 E123.46681
G1 X41.134 Y61.581 E124.14558
G1 X40.272 Y62.276 E124.70243
G1 X39.309 Y63.006 E125.31013
G1 X38.39 Y63.664 E125.87854
G1 X37.362 Y64.356 E126.50173
G1 X36.321 Y65.011 E127.12025
G1 X35.278 Y65.625 E127.7289
G1 X34.259 Y66.188 E128.31437
G1 X33.394 Y66.634 E128.80379
G1 X32.101 Y67.254 E129.52492
G1 F1200 Z2.4
;MESH:VC_Tube_60mm_V1.stl
G0 F3000 X26.334 Y62.903 Z2.4
;TYPE:WALL-OUTER
G1 F1200 Z0.9
G1 F1500 X27.257 Y62.569 E130.01854
G1 X28.177 Y62.208 E130.51555
G1 X29.088 Y61.819 E131.0137
G1 X30.082 Y61.361 E131.56409
G1 X30.976 Y60.914 E132.06674
G1 X31.842 Y60.451 E132.56058
G1 X32.696 Y59.963 E133.05523
G1 X33.624 Y59.395 E133.60239
G1 X34.373 Y58.906 E134.05223
G1 X35.275 Y58.282 E134.6038
G1 X36.077 Y57.689 E135.1054
G1 X36.864 Y57.072 E135.60831
G1 X37.633 Y56.434 E136.1108
G1 X38.385 Y55.77 E136.6153
G1 X39.109 Y55.093 E137.11377
G1 X39.763 Y54.449 E137.57536
G1 X40.527 Y53.652 E138.13057
G1 X41.264 Y52.83 E138.68577
G1 X41.91 Y52.065 E139.1893
G1 X42.534 Y51.283 E139.69242
G1 X43.131 Y50.485 E140.19361
G1 X43.706 Y49.67 E140.6952
G1 X44.258 Y48.842 E141.19565
G1 X44.831 Y47.918 E141.74242
G1 X45.279 Y47.15 E142.18955
G1 X45.799 Y46.199 E142.73463
G1 X46.243 Y45.325 E143.22762
G1 X46.659 Y44.447 E143.71621
G1 X47.048 Y43.559 E144.20375
G1 X47.413 Y42.665 E144.68936
G1 X47.754 Y41.756 E145.1776
G1 X48.087 Y40.778 E145.69716
G1 X48.369 Y39.874 E146.17338
G1 X48.623 Y38.968 E146.64657
G1 X48.852 Y38.062 E147.11652
G1 X49.055 Y37.162 E147.58049
G1 X49.231 Y36.263 E148.04118
G1 X49.404 Y35.229 E148.5684
G1 X49.522 Y34.375 E149.00195
G1 X49.639 Y33.345 E149.52326
G1 X49.708 Y32.499 E149.95012
G1 X49.767 Y31.49 E150.4584
G1 X49.803 Y30.234 E151.0903
G1 X49.785 Y29.055 E151.68328
G1 X49.748 Y28.105 E152.16139
G1 X49.68 Y27.135 E152.65039
G1 X49.594 Y26.227 E153.10906
G1 X49.472 Y25.23 E153.61419
G1 X49.314 Y24.221 E154.12779
G1 X49.165 Y23.386 E154.55434
G1 X48.974 Y22.472 E155.02391
G1 X48.754 Y21.532 E155.50941
G1 X48.483 Y20.516 E156.03821
G1 X48.207 Y19.588 E156.5251
G1 X47.903 Y18.662 E157.01523
G1 X47.57 Y17.747 E157.5049
G1 X47.208 Y16.825 E158.00303
G1 X46.818 Y15.912 E158.5023
G1 X46.361 Y14.918 E159.05248
G1 X45.916 Y14.026 E159.55378
G1 X45.453 Y13.16 E160.04763
G1 X44.965 Y12.306 E160.54227
G1 X44.395 Y11.377 E161.09039
G1 X43.906 Y10.627 E161.54064
G1 X43.282 Y9.725 E162.09222
G1 X42.689 Y8.923 E162.59382
G1 X42.07 Y8.135 E163.09774
G1 X41.434 Y7.367 E163.5992
G1 X40.77 Y6.616 E164.10333
G1 X40.084 Y5.882 E164.60857
G1 X39.375 Y5.165 E165.11566
G1 X38.652 Y4.475 E165.61826
G1 X37.83 Y3.738 E166.17346
G1 X36.992 Y3.033 E166.72418
G1 X36.28 Y2.466 E167.18191
G1 X35.484 Y1.868 E167.68259
G1 X34.67 Y1.294 E168.18349
G1 X33.842 Y0.742 E168.68393
G1 X32.918 Y0.169 E169.2307
G1 X32.15 Y-.279 E169.67783
G1 X31.199 Y-.799 E170.22291
G1 X30.326 Y-1.243 E170.71545
G1 X29.445 Y-1.659 E171.20541
G1 X28.558 Y-2.048 E171.69249
G1 X27.665 Y-2.413 E172.17763
G1 X26.768 Y-2.749 E172.65934
G1 X25.779 Y-3.087 E173.18494
G1 X24.876 Y-3.369 E173.66069
G1 X23.97 Y-3.623 E174.13387
G1 X23.065 Y-3.852 E174.60334
G1 X22.16 Y-4.054 E175.06965
G1 X21.263 Y-4.231 E175.52945
G1 X20.229 Y-4.404 E176.05667
G1 X19.375 Y-4.522 E176.49022
G1 X18.343 Y-4.639 E177.01253
G1 X17.499 Y-4.708 E177.43839
G1 X16.49 Y-4.767 E177.94667
G1 X15.48 Y-4.797 E178.45482
G1 X14.937 Y-4.799 E178.72789
G1 X13.971 Y-4.783 E179.21375
G1 X13.105 Y-4.748 E179.64961
G1 X11.972 Y-4.666 E180.22088
G1 X11.229 Y-4.594 E180.59628
G1 X10.23 Y-4.471 E181.10247
G1 X9.144 Y-4.301 E181.65526
G1 X8.388 Y-4.165 E182.04155
G1 X7.461 Y-3.971 E182.51783
G1 X6.533 Y-3.752 E182.99733
G1 X5.516 Y-3.481 E183.52662
G1 X4.603 Y-3.209 E184.00571
G1 X3.666 Y-2.903 E184.50141
G1 X2.743 Y-2.569 E184.99504
G1 X1.823 Y-2.208 E185.49204
G1 X0.913 Y-1.819 E185.98973
G1 X-0.082 Y-1.361 E186.54058
G1 X-.976 Y-.914 E187.04323
G1 X-1.842 Y-.451 E187.53707
G1 X-2.696 Y0.037 E188.03171
G1 X-3.624 Y0.606 E188.57914
G1 X-4.373 Y1.094 E189.0287
G1 X-5.274 Y1.718 E189.57986
G1 X-6.077 Y2.311 E190.08186
G1 X-6.864 Y2.928 E190.58477
G1 X-7.633 Y3.566 E191.08726
G1 X-8.385 Y4.23 E191.59176
G1 X-9.109 Y4.907 E192.09024
G1 X-9.763 Y5.551 E192.55182
G1 X-10.527 Y6.348 E193.10704
G1 X-11.265 Y7.17 E193.66257
G1 X-11.91 Y7.935 E194.16578
G1 X-12.534 Y8.717 E194.6689
G1 X-13.131 Y9.515 E195.17008
G1 X-13.706 Y10.33 E195.67168
G1 X-14.258 Y11.158 E196.17213
G1 X-14.831 Y12.081 E196.71847
G1 X-15.279 Y12.85 E197.16603
G1 X-15.799 Y13.801 E197.71111
G1 X-16.243 Y14.675 E198.2041
G1 X-16.659 Y15.553 E198.6927
G1 X-17.048 Y16.441 E199.18023
G1 X-17.413 Y17.335 E199.66585
G1 X-17.754 Y18.244 E200.15409
G1 X-18.087 Y19.222 E200.67364
G1 X-18.369 Y20.126 E201.14986
G1 X-18.623 Y21.032 E201.62305
G1 X-18.852 Y21.938 E202.093
G1 X-19.055 Y22.838 E202.55698
G1 X-19.231 Y23.737 E203.01766
G1 X-19.405 Y24.771 E203.54496
G1 X-19.522 Y25.625 E203.97845
G1 X-19.639 Y26.655 E204.49976
G1 X-19.708 Y27.501 E204.92662
G1 X-19.767 Y28.511 E205.43541
G1 X-19.804 Y29.752 E206.05977
G1 X-19.783 Y31.029 E206.70205
G1 X-19.748 Y31.895 E207.13792
G1 X-19.666 Y33.028 E207.70918
G1 X-19.594 Y33.771 E208.08458
G1 X-19.471 Y34.77 E208.59077
G1 X-19.301 Y35.856 E209.14356
G1 X-19.165 Y36.612 E209.52985
G1 X-18.971 Y37.539 E210.00613
G1 X-18.752 Y38.467 E210.48564
G1 X-18.481 Y39.484 E211.01493
G1 X-18.209 Y40.397 E211.49401
G1 X-17.903 Y41.334 E211.98971
G1 X-17.569 Y42.257 E212.48334
G1 X-17.208 Y43.177 E212.98034
G1 X-16.819 Y44.087 E213.47803
G1 X-16.361 Y45.082 E214.02888
G1 X-15.914 Y45.976 E214.53153
G1 X-15.451 Y46.842 E215.02537
G1 X-14.965 Y47.693 E215.51821
G1 X-14.395 Y48.624 E216.06718
G1 X-13.906 Y49.373 E216.51702
G1 X-13.282 Y50.275 E217.06859
G1 X-12.691 Y51.075 E217.56878
G1 X-12.073 Y51.864 E218.07279
G1 X-11.434 Y52.633 E218.57561
G1 X-10.77 Y53.385 E219.08011
G1 X-10.093 Y54.109 E219.57858
G1 X-9.449 Y54.763 E220.04016
G1 X-8.652 Y55.527 E220.59538
G1 X-7.83 Y56.264 E221.15058
G1 X-7.067 Y56.908 E221.65269
G1 X-6.282 Y57.534 E222.15762
G1 X-5.485 Y58.131 E222.6584
G1 X-4.67 Y58.706 E223.16
G1 X-3.844 Y59.256 E223.65905
G1 X-2.918 Y59.832 E224.20747
G1 X-2.15 Y60.279 E224.65435
G1 X-1.199 Y60.799 E225.19942
G1 X-.325 Y61.243 E225.69242
G1 X0.553 Y61.659 E226.18101
G1 X1.441 Y62.048 E226.66855
G1 X2.335 Y62.413 E227.15416
G1 X3.244 Y62.754 E227.6424
G1 X4.222 Y63.087 E228.16196
G1 X5.126 Y63.369 E228.63818
G1 X6.032 Y63.623 E229.11137
G1 X6.938 Y63.852 E229.58132
G1 X7.838 Y64.055 E230.04529
G1 X8.737 Y64.231 E230.50597
G1 X9.771 Y64.405 E231.03328
G1 X10.625 Y64.522 E231.46676
G1 X11.655 Y64.639 E231.98807
G1 X12.501 Y64.708 E232.41493
G1 X13.511 Y64.767 E232.92372
G1 X14.752 Y64.804 E233.54809
G1 X16.029 Y64.783 E234.19037
G1 X16.895 Y64.748 E234.62623
G1 X17.864 Y64.68 E235.11473
G1 X18.771 Y64.594 E235.5729
G1 X19.77 Y64.471 E236.07908
G1 X20.856 Y64.301 E236.63188
G1 X21.612 Y64.165 E237.01817
G1 X22.539 Y63.971 E237.49445
G1 X23.467 Y63.753 E237.97384
G1 X24.484 Y63.481 E238.50326
G1 X25.397 Y63.209 E238.98234
G1 X26.334 Y62.903 E239.47804
G0 F3000 X27.257 Y62.569
G0 X27.833 Y62.343
G1 F1200 Z2.4
G0 F3000 X22.705 Y49.752 Z2.4
G1 F1200 Z0.9
G1 F1500 X21.738 Y50.103 E239.99539
G1 X20.731 Y50.411 E240.52496
G1 X19.782 Y50.655 E241.01772
G1 X18.777 Y50.86 E241.53354
G1 X17.779 Y51.017 E242.0416
G1 X16.796 Y51.124 E242.53886
G1 X15.79 Y51.185 E243.0457
G1 X15.033 Y51.2 E243.42647
G1 X13.961 Y51.176 E243.9657
G1 X12.917 Y51.098 E244.49219
G1 X11.977 Y50.985 E244.96831
G1 X10.979 Y50.816 E245.47734
G1 X10.011 Y50.606 E245.97547
G1 X8.972 Y50.325 E246.51675
G1 X7.981 Y50.005 E247.04045
G1 X7.009 Y49.636 E247.5633
G1 X5.984 Y49.188 E248.12585
G1 X5.056 Y48.724 E248.64762
G1 X4.118 Y48.194 E249.18943
G1 X3.201 Y47.614 E249.73508
G1 X2.314 Y46.987 E250.28134
G1 X1.457 Y46.31 E250.83057
G1 X0.633 Y45.591 E251.38053
G1 X-.16 Y44.821 E251.93639
G1 X-.871 Y44.056 E252.46161
G1 X-1.575 Y43.22 E253.01124
G1 X-2.235 Y42.346 E253.56201
G1 X-2.843 Y41.447 E254.1078
G1 X-3.382 Y40.562 E254.62891
G1 X-3.892 Y39.621 E255.16716
G1 X-4.353 Y38.654 E255.70589
G1 X-4.752 Y37.705 E256.22361
G1 X-5.103 Y36.738 E256.74095
G1 X-5.411 Y35.731 E257.27052
G1 X-5.655 Y34.782 E257.76329
G1 X-5.86 Y33.777 E258.2791
G1 X-6.017 Y32.779 E258.78716
G1 X-6.128 Y31.741 E259.31214
G1 X-6.185 Y30.792 E259.79025
G1 X-6.2 Y30.032 E260.17252
G1 X-6.176 Y28.961 E260.71125
G1 X-6.098 Y27.917 E261.23774
G1 X-5.985 Y26.977 E261.71386
G1 X-5.816 Y25.979 E262.22289
G1 X-5.594 Y24.958 E262.74834
G1 X-5.325 Y23.972 E263.26232
G1 X-5.005 Y22.981 E263.78602
G1 X-4.636 Y22.009 E264.30888
G1 X-4.188 Y20.984 E264.87143
G1 X-3.725 Y20.057 E265.39252
G1 X-3.164 Y19.068 E265.96433
G1 X-2.615 Y18.201 E266.4804
G1 X-1.988 Y17.315 E267.02624
G1 X-1.337 Y16.49 E267.55474
G1 X-.592 Y15.634 E268.12542
G1 X0.178 Y14.841 E268.68129
G1 X0.943 Y14.13 E269.2065
G1 X1.746 Y13.453 E269.73469
G1 X2.667 Y12.756 E270.31554
G1 X3.553 Y12.157 E270.85338
G1 X4.398 Y11.641 E271.35129
G1 X5.379 Y11.108 E271.91274
